X:13024
T:Musical Priest, The
R:Reel
C:Trad. O'Neill's 1748
O:Scotland, then Ireland
M:4/4
L:1/8
Q:1/8=260
K:D
BA|"Bm"FB BA B3d|"A"cBAf ecBA|"Bm"FB BA BcdB|cBAc B2:|
Bc|:"Bm"d2 dc dfed|"A"(3cBA eA fA eA|"Bm"d2 dc defb|afed dB Bc:|
|:"Bm"dB (3BAB bafb|"A"afec ABce|"Bm"dB (3BBB bafb|afec B2 Bc:|
% --------------------------------- N ---------------------------------------

